packages/components/Atoms/Icon/assets/img/rpl_icon_share.svg

<svg width="15" height="15" viewBox="0 0 15 15" overflow="visible" xmlns="http://www.w3.org/2000/svg">
  <path fill-rule="evenodd" clip-rule="evenodd" d="M2.09542 6.41024C1.84901 5.90715 2.09651 5.31938 2.64603 5.09424L12.4643 1.08746C13.0182 0.861318 13.6593 1.08945 13.9046 1.59055C14.151 2.09364 13.9035 2.6824 13.354 2.90755L3.53572 6.91333C3.39071 6.9731 3.24025 7 3.09196 7C2.67437 7 2.27641 6.77984 2.09542 6.41024Z"
    transform="translate(0 0.00300598)" fill="inherit" />
  <path fill-rule="evenodd" clip-rule="evenodd" d="M12.9074 13C12.7286 13 12.5475 12.9599 12.3795 12.8748L2.56243 7.87783C2.03558 7.60846 1.84469 6.9996 2.13702 6.51493C2.43045 6.03225 3.09255 5.85801 3.62049 6.12538L13.4376 11.1224C13.9644 11.3917 14.1553 12.0006 13.863 12.4843C13.6634 12.8137 13.2914 13 12.9074 13L5.87545 5.968Z"
    transform="translate(0 0.00300598)" fill="inherit" />
  <path fill-rule="evenodd" clip-rule="evenodd" d="M5 6.5C5 7.881 3.881 9 2.5 9C1.119 9 0 7.881 0 6.5C0 5.119 1.119 4 2.5 4C3.881 4 5 5.119 5 6.5Z"
    transform="translate(0 0.00300598)" fill="inherit" />
  <path fill-rule="evenodd" clip-rule="evenodd" d="M15 2.5C15 3.881 13.88 5 12.5 5C11.119 5 10 3.881 10 2.5C10 1.119 11.119 0 12.5 0C13.88 0 15 1.119 15 2.5Z"
    transform="translate(0 0.00300598)" fill="inherit" />
  <path fill-rule="evenodd" clip-rule="evenodd" d="M15 11.5C15 12.881 13.88 14 12.5 14C11.119 14 10 12.881 10 11.5C10 10.119 11.119 9 12.5 9C13.88 9 15 10.119 15 11.5Z"
    transform="translate(0 0.00300598)" fill="inherit" />
</svg>

<svg width="15" height="15" overflow="visible" xmlns="http://www.w3.org/2000/svg"><path fill-rule="evenodd" clip-rule="evenodd" d="M2.095 6.413c-.246-.503.002-1.09.551-1.316l9.818-4.007c.554-.226 1.195.002 1.44.504.247.503 0 1.091-.55 1.317L3.536 6.916a1.16 1.16 0 01-.444.087c-.418 0-.816-.22-.997-.59z" fill="inherit"/><path fill-rule="evenodd" clip-rule="evenodd" d="M12.907 13.003c-.178 0-.36-.04-.527-.125L2.562 7.88c-.526-.27-.717-.878-.425-1.363.293-.483.956-.657 1.483-.39l9.818 4.997c.526.27.717.879.425 1.362-.2.33-.572.516-.956.516L5.875 5.971z" fill="inherit"/><path fill-rule="evenodd" clip-rule="evenodd" d="M5 6.503a2.5 2.5 0 11-5 0 2.5 2.5 0 015 0zM15 2.503a2.5 2.5 0 11-5 0 2.5 2.5 0 015 0zM15 11.503a2.5 2.5 0 11-5 0 2.5 2.5 0 015 0z" fill="inherit"/></svg>
